X: 17950
T: Howard Gowing's Fancy
R: jig
M: 6/8
K: Bminor
E|F2B BAF|BdB BAF|~A3 AFE|AdB AFA|
B2d BAF|BAB def|a2f def|1 ecA B2:|2 ecA Bc||
|:e|~f3 fec|fec B2c|Ace fec|efa b2a|
~f3 a2f|ecA ABc|d2B cBA|1 FBA Bc:|2 FBA B2||

